X:58
T:I Heard The Bells On Christmas Day
%%stretchlast false
M:4/4
L:1/4
K:C clef=C1
"^I"[CEc] [CGce] "^I²"[G,Gce]/ "^i²"[G,Gc^d]/ "^I"[CGce] | "^v°7²"[^CG^Ae] "^V7²"[DGBf] "^V7"[G,GBf]/ "^iii¹"[G,GBe]/ "^V7²"[DGBf] | "^i°7¹"[^DAc^f] "^I¹"[EGcg] "^I²"[G,Gec'] "^Imaj7"[CGeb] | "^vi²"[Eca] "^viiø7²"[FBda]3/2 "^V7³"[FBdg]/ [FBdg] | "^I¹"[Ecg] "^IV"[FAcg]3/2 [FAcf]/ "^I"[CGce] | "^iv"[Cfg] "^III²"[B,E^Ge]3/2 "^iii7²"[B,EGd]/ "^vi"[A,EAc] | "^ii7"[D,Fcd] "^I²"[G,Gce] "^IV"[F,Acf] "^I¹"[E,Gcg] | "^ii7¹"[F,Dca] "^V"[G,DB]3/2 "^V7"[G,FBd]/ "^I"[CEc] |]
